X:185
T: Aus deinen blauen Augen (3-25), S. 64f
N: K1160
O: Luxemburg
S: KINTZELE, Guillaume: An der Ucht, Bd. 3 Luxemburg 1928]
N: in der Quelle mit einer 2. Stimme versehen
R: Klagelied ber die Liebe]
M: 4/4
L: 1/8
K: C
EEF | G3GedcE | GFF2z
FFF | d3cBAGF | FEE2z
ccc | cAA3cBA | AGG2z
GcE | DFA3GBA | GFE2z
ccc | cAA3cBA | AGG2z
GcE | DFA3GBA | G4d4 | c4z

@@@ Tune index: 8239
